packages/dnb-eufemia/assets/icons/file_rejected.svg

<svg width="16" height="16" viewBox="0 0 16 16" fill="none" xmlns="http://www.w3.org/2000/svg">
<path d="M9.59 2.5L8.61958 1.35383C8.42957 1.12942 8.15043 1 7.85638 1H2C1.44772 1 1 1.44772 1 2V14C1 14.5523 1.44772 15 2 15H4M8.6875 11.8125L10.25 10.25M10.25 10.25L11.8125 8.6875M10.25 10.25L11.8125 11.8125M10.25 10.25L8.6875 8.6875M15.17 10.25C15.17 12.9673 12.9672 15.17 10.25 15.17C7.53275 15.17 5.32999 12.9673 5.32999 10.25C5.32999 7.53278 7.53275 5.33002 10.25 5.33002C12.9672 5.33002 15.17 7.53278 15.17 10.25Z" stroke="black" stroke-width="1.5" stroke-linecap="round" stroke-linejoin="round"/>
</svg>

<svg width="16" height="16" viewBox="0 0 16 16" fill="none" xmlns="http://www.w3.org/2000/svg"><path d="m9.59 2.5-.97-1.146A1 1 0 0 0 7.856 1H2a1 1 0 0 0-1 1v12a1 1 0 0 0 1 1h2m4.688-3.188 1.562-1.562m0 0 1.563-1.563M10.25 10.25l1.563 1.563M10.25 10.25 8.687 8.687m6.483 1.563a4.92 4.92 0 1 1-9.84 0 4.92 4.92 0 0 1 9.84 0Z" stroke="#000" stroke-width="1.5" stroke-linecap="round" stroke-linejoin="round"/></svg>
